Newaita/actions/24/format-text-strikethrough.svg

<svg height="24" viewBox="0 0 24 24" width="24" xmlns="http://www.w3.org/2000/svg"><g fill="#424242"><path d="m4.21875 11.597656h15.378906c.136719 0 .246094.113282.246094.25v.496094c0 .136719-.109375.246094-.246094.246094h-15.378906c-.136719 0-.25-.109375-.25-.246094v-.496094c0-.136718.113281-.25.25-.25zm0 0"/><path d="m11.90625 4.40625c-2.210938 0-4.132812.894531-5.160156 2.230469l1.648437 1.03125c.628907-.765625 1.835938-1.277344 3.226563-1.277344h.574218c2.039063 0 3.679688 1.105469 3.679688 2.480469v1.734375h1.984375v-1.734375c0-2.476563-2.652344-4.464844-5.953125-4.464844zm-5.5625 9.175781c-.253906.496094-.390625 1.035157-.390625 1.597657v.496093h.035156c.328125 2.238281 2.84375 3.96875 5.917969 3.96875 1.527344 0 2.917969-.425781 3.96875-1.128906v1.019531h1.984375v-5.953125h-2.84375c.539063.433594.859375.988281.859375 1.597657 0 1.375-1.640625 2.480468-3.679688 2.480468h-.574218c-2.039063 0-3.683594-1.105468-3.683594-2.480468 0-.609376.324219-1.164063.863281-1.597657zm0 0"/></g></svg>

<?xml version="1.0" encoding="UTF-8"?>
<svg xmlns="http://www.w3.org/2000/svg" xmlns:xlink="http://www.w3.org/1999/xlink" width="24px" height="24px" viewBox="0 0 24 24" version="1.1">
<g id="surface1">
<path style=" stroke:none;fill-rule:nonzero;fill:rgb(25.882354%,25.882354%,25.882354%);fill-opacity:1;" d="M 4.21875 11.597656 L 19.597656 11.597656 C 19.734375 11.597656 19.84375 11.710938 19.84375 11.847656 L 19.84375 12.34375 C 19.84375 12.480469 19.734375 12.589844 19.597656 12.589844 L 4.21875 12.589844 C 4.082031 12.589844 3.96875 12.480469 3.96875 12.34375 L 3.96875 11.847656 C 3.96875 11.710938 4.082031 11.597656 4.21875 11.597656 Z M 4.21875 11.597656 "/>
<path style=" stroke:none;fill-rule:nonzero;fill:rgb(25.882354%,25.882354%,25.882354%);fill-opacity:1;" d="M 11.90625 4.40625 C 9.695312 4.40625 7.773438 5.300781 6.746094 6.636719 L 8.394531 7.667969 C 9.023438 6.902344 10.230469 6.390625 11.621094 6.390625 L 12.195312 6.390625 C 14.234375 6.390625 15.875 7.496094 15.875 8.871094 L 15.875 10.605469 L 17.859375 10.605469 L 17.859375 8.871094 C 17.859375 6.394531 15.207031 4.40625 11.90625 4.40625 Z M 6.34375 13.582031 C 6.089844 14.078125 5.953125 14.617188 5.953125 15.179688 L 5.953125 15.675781 L 5.988281 15.675781 C 6.316406 17.914062 8.832031 19.644531 11.90625 19.644531 C 13.433594 19.644531 14.824219 19.21875 15.875 18.515625 L 15.875 19.535156 L 17.859375 19.535156 L 17.859375 13.582031 L 15.015625 13.582031 C 15.554688 14.015625 15.875 14.570312 15.875 15.179688 C 15.875 16.554688 14.234375 17.660156 12.195312 17.660156 L 11.621094 17.660156 C 9.582031 17.660156 7.9375 16.554688 7.9375 15.179688 C 7.9375 14.570312 8.261719 14.015625 8.800781 13.582031 Z M 6.34375 13.582031 "/>
</g>
</svg>
